X:1
T:Intermezzo
T:Intermezzo
T:Op 116 No 2
T:Johannes Brahms
C:Johannes Brahms
%%score { ( 1 2 5 ) | ( 3 4 ) }
L:1/8
Q:1/4=60
M:3/4
K:C
V:1 treble nm="Piano" snm="Pno."
V:2 treble 
V:5 treble 
V:3 bass 
V:4 bass 
V:1
"^Andante."!p!!<(! (cc!<)!!mp!!>(! [Bd]4)!>)! |!p!!<(! (cc!<)!!mp!!>(! [^GB]4)!>)! |!p! (AA c2 A2 | %3
 ^G2 [GB]4) |!<(! (cc [^ce]4) | ff!<)!!f! [^fa]4 | (c4 [Ac]2 | [Ee]6) |[K:bass]!pp! [E,E]6 | %9
[K:treble] (cc [Bd]c [Bd]2) | (cc [^GB]A [GB]2) |!<(! (AA-!<)!!p! [Ac]!>(!B [Ac]A!>)! | %12
!pp! ^G2 [GB]4) | cc!<(! [^ce][Bd] [ce]2 | ([df][df] [^fa][^e^g] [fa]2)!<)! |!f! (gg fe!>(! dc | %16
 [Ee]6)!>)! |[K:bass]"_rit."!pp! [E,E]6[Q:1/4=55][Q:1/4=45][Q:1/4=30] | %18
[M:3/8][K:treble]"_molto piano e legato"[Q:1/4=90]"^Non troppo presto." (e/e'/d'/d/f/f'/ | %19
 e'/e/d/d'/c'/c/ | B/b/d'/d/c/c'/ |!>(! b/B/A<a- | aA<[Aa]-!>)! |!ppp! [Aa]G/g/^f/^F/ | %24
 B/b/a/A/G/g/ | ^f/!<(!^F/A/a/c'/c/ | B/b/d'/d/f/f'/ | e'/e/d/d'/f'/f/ | e/e'/d'/d/!<)!f/f'/ | %29
!>(! e'/e/d/d'/c'/c/ | B/b/d'/d/c/c'/ | b/B/!>)!A<a- | aA<[Aa]- | [Aa]G/g/^f/^F/ | B/b/a/A/G/g/ | %35
 ^f/!<(!^F/A/a/c'/c/ | B/b/d'/d/f/f'/!<)! |!f! e'/e/g/g'/f'/f/ | e/e'/g'/g/f/f'/ | %39
 e'/e/a/a'/f'/f/ |!>(! g/g'/e'/e/f/f'/ | d'/d/e/e'/^c'/^c/ | e/e'/d'/d/c/c'/!>)! | %43
!p!"_dim." b/B/d/d'/c'/c/ | B/b/)!>(!(d'<d | c<c'!>)!b/-B/- |!pp!!>(! [Bb]A<[Aa]- | [Aa]3) | %48
 (A/-a/-[Q:1/4=80] [Aa]2-!>)! |!ppp![Q:1/4=65] [Aa]3)[Q:1/4=40] | %50
[M:3/4][Q:1/4=60]"^Andante."!mf! [^CA]2!>(! (!arpeggio!^G<!>)!!mp!^F-) F2 | %51
!mf!!>(! [^CA]2 (!arpeggio!E<!>)!!mp!D-) D2 |!mf!!>(! (^F2 ^C2 F2 | E2 B,4)!>)! | %54
"_dolce"!p! (aa{/^g} ^f4) | (aa{/e} [Bd]4) |!<(! (^ff ^c2 f2!<)! |!mp!!>(! e2!>)!!p! B4) | %58
!<(! z ((^F!<)!!mp! ^C)!>(!(^G CF))!>)! |!p!!<(! z .[^G,E] z .[^Ge] z!<)!!f! [e^ge'] | %60
 ([fb][dd'] [ea][cc'] [dg][Bb] | fa!>(! gf e^d | [^Ge])([^cg] [=c^f][B=f] [_Be][A^d]!>)! | %63
!pp! [^Gd][=G^c] [^Fd]"_string."[Q:1/4=65]!<(![=FB][Q:1/4=75] [E=c][Q:1/4=80][G^c]!<)! | %64
!p! [^Fd]"_rit."[Q:1/4=75]!>(![=FB][Q:1/4=60] [Ec][Q:1/4=45][G^c]!>)![Q:1/4=35]!pp! [^Fd][=FB]) | %65
[Q:1/4=60]!p!!<(! ([Ec]c!<)!!mp!!>(! [Bd]4)!>)! |!p!!<(! (cc!<)!!mp!!>(! [^GB]4)!>)! | %67
!p! (AA c2 A2 | ^G2 [GB]4) |!<(! (cc [^ce]4) | (ff!<)!!f! [^fa]4) | (c4!>(! [Ac]2 | [Ee]6)!>)! | %73
[K:bass]!pp! [E,E]6 |[K:treble] (cc [Bd]c [Bd]2) | (cc [^GB]A [GB]2) | %76
!<(! (AA-!<)!!p! [Ac]!>(!B [Ac]A!>)! |!pp! ^G2 [GB]4) |!<(! (cc [^ce]2 [Bf]2!<)! | [^cg]6) | %80
!pp!!<(! ([df][df] [c^fa][_Bg]) ([^ce_b][Afa])!<)! | [c^fc']6 |!p! (gg fe dc | [Ee]6) | %84
[K:bass]"_rit."!pp! [E,E]6[Q:1/4=55][Q:1/4=45][Q:1/4=30] |] %85
V:2
 A(A F4) | A(A D4) | ^FF C2 F2 | E2 B,4 | AA E4 | dd A4 | [Gg][Gg]!>(! [^Ge]2 x2 | %7
 (([^GB]2 A4))!>)! |[K:bass] (([^G,B,]2 A,4)) |[K:treble] AA FA F2 | AA DF D2 | ^FF C^G CF | %12
 E2 B,4 | AA EF E[Ag] | AA cB cc' | [Gc][Gc-] [^Gc]2 A2 | (([^GB]2 A4)) | %17
[K:bass] (([^G,B,]2 A,4)) |[M:3/8][K:treble] x3 | x3 | x3 | x3 | x3 | x3 | x3 | x3 | x3 | x3 | x3 | %29
 x3 | x3 | x3 | x3 | x3 | x3 | x3 | x3 | x3 | x3 | x3 | x3 | x3 | x3 | x3 | x3 | x3 | x3 | x3 | %48
 x3 | x3 |[M:3/4] A,6 | A,6 | A,6 | ^G,6 | [A^c]2 [Ad]4 | [A^c]2 x4 | A6 | ^G6 | z A,- A,4 | x6 | %60
 x6 | c2 dc BA | x6 | x6 | x6 | A(A F4) | A(A D4) | ^FF C2 F2 | E2 B,4 | AA E4 | dd A4 | %71
 [Gg][Gg] [^Ge]2 x2 | (([^GB]2 A4)) |[K:bass] (([^G,B,]2 A,4)) |[K:treble] AA FA F2 | AA DF D2 | %76
 ^FF C^G CF | E2 B,4 | AA G2 F2 | x6 | x6 | x6 | G2 ^G2 A2 | (([^GB]2 A4)) | %84
[K:bass] (([^G,B,]2 A,4)) |] %85
V:3
!ped! (3(A,,,A,,E,!ped-up! [A,,D,]4) |!ped! (3(A,,,A,,E,!ped-up! [A,,F,]4) | %2
!ped! (3(A,,,A,,C,!ped-up! [A,,^D,]4) |!ped! (3(E,,-B,,E,-!ped-up! [E,,E,]4) | %4
!ped! (3(A,,,A,,E,!ped-up! [A,,A,]4) |!ped! (3(D,,D,A,!ped-up! [^D,C]4) | %6
!ped! (3(E,,E,G,!ped-up! C3 A,) | (E,E,- C,2 A,,2) | (E,,E,, C,,2 A,,,2-) | %9
!ped! (3(A,,,A,,E, (3A,,!ped-up!D,F, A,,2) |!ped! (3(A,,,A,,E, (3A,,!ped-up!F,D, A,,2) | %11
!ped! (3(A,,,A,,C,!ped-up! (3A,,^F,^D, (3A,,F,D,) |!ped! (3(E,,-B,,E,-!ped-up! [E,,E,]4) | %13
!ped! (3(A,,,A,,E,!ped-up! (3A,,A,D, (3A,,A,E,) |!ped! (3(D,,D,A,!ped-up! (3^D,CA, (3D,CA,) | %15
!ped! (3(E,,E,G,!ped-up! (3:2:2E, C2 (3:2:2F, A,2) | %16
!mp!!<(! (E,E,- D,!<)!!mf!C,!>(! B,,!p!A,,)!>)! | z (E,, D,,C,, B,,,A,,,) | %18
[M:3/8][K:treble] (^G!ped! A2!ped-up! | ^G!ped! A2!ped-up! | ^G!ped! A2!ped-up! | %21
 ^G!ped! A2!ped-up! | ^D!ped! E2!ped-up! | ^D!ped! E2!ped-up! | ^D!ped! E2!ped-up! | %25
 ^D!ped!E^F!ped-up! | ^G!ped! A2!ped-up! | ^G!ped! A2!ped-up! | ^G!ped! A2!ped-up! | %29
 ^G!ped! A2!ped-up! | ^G!ped! A2!ped-up! | ^G!ped! A2!ped-up! | ^D!ped! E2!ped-up! | %33
 ^D!ped! E2!ped-up! | ^D!ped! E2!ped-up! | ^D!ped!E^F!ped-up! | ^G!ped!AB!ped-up! | %37
 ^c!ped! d2!ped-up! | ^c!ped! d2!ped-up! | ^c!ped! d2-!ped-up! | d!ped! c2!ped-up! | %41
 _B2!ped! A-!ped-up! | A3) | ^G!ped! A2!ped-up! | ^G!ped! A2!ped-up! | ^G!ped! A2!ped-up! | ^GAF | %47
 GEF |[K:bass] DE^C | EA,D |[M:3/4]!ped! (3(A,,,A,,-E,!ped-up! D,4) | %51
!ped! (3(A,,,A,,-E,!ped-up! ^F,4) |!ped! (3(A,,,A,,-^C,!ped-up! [A,,^D,]4) | %53
!ped! (E,,B,, E,4)!ped-up! |!ped! (3(A,,A,E!ped-up! [A,D]4) |!ped! (3(A,,A,E!ped-up! [A,^F]4) | %56
!ped! (3(A,,A,^C!ped-up! [A,^D]4) |!ped! (E,B, E4)!ped-up! |!ped! (3A,,,A,,-^C,!ped-up! ^D,4 | %59
!ped! [E,,B,,] z .[E,B,] z[K:treble] .[EB]!ped-up! z | (dB cA BG | A2 BA GF | %62
 E)[K:bass](A, D,G,, C,,F,, | E,,A,, D,,G,,, C,,A,, | D,,G,,, C,,A,, D,,D,,,) | %65
!ped! (3(A,,,A,,E,!ped-up! [A,,D,]4) |!ped! (3(A,,,A,,E,!ped-up! [A,,F,]4) | %67
!ped! (3(A,,,A,,C,!ped-up! [A,,^D,]4) |!ped! (3(E,,-B,,E,- [E,,E,]4)!ped-up! | %69
!ped! (3(A,,,A,,E,!ped-up! [A,,A,]4) |!ped! (3(D,,D,A,!ped-up! [^D,C]4) | %71
!ped! (3(E,,E,G,!ped-up! C3 A,) | (E,E,- C,2 A,,2) | (E,,E,, C,,2 A,,,2-) | %74
!ped! (3(A,,,A,,E, (3A,,!ped-up!D,F, A,,2) |!ped! (3(A,,,A,,E, (3A,,!ped-up!F,D, A,,2) | %76
!ped! (3(A,,,A,,C,!ped-up! (3A,,^F,^D, (3A,,F,D,) |!ped! (3(E,,-B,,E,-!ped-up! [E,,E,]4) | %78
!ped! (3(A,,,A,,E,!ped-up! (3A,,A,D,[K:treble] (3DA,-A- | [A,EA]6) | %80
[K:bass]!ped! (3(D,,D,A,!ped-up! (3D,DG,[K:treble] (3G(D-d | D2 ^D4)) | %82
[K:bass]!ped! (3(E,,E,G,!ped-up! (3:2:2E, C2 (3:2:2F, A,2) | %83
!p!!<(! (E,E,- D,!<)!!mp!C,!>(! B,,!pp!A,,)!>)! | z (E,, D,,C,, B,,,A,,,) |] %85
V:4
 x6 | x6 | x6 | E,,2 x2 x2 | x6 | x6 | x2 E,2 F,2 | x2 E,4 | x6 | x6 | x6 | x6 | E,,2 x2 x2 | x6 | %14
 x6 | x6 | x2 E,4 | x6 |[M:3/8][K:treble] (EFD | EFD | EFD | EFD | B,CA, | B,CA, | B,CA, | B,CA, | %26
 EFD | EFD | EFD | EFD | EFD | EFD | B,CA, | B,CA, | B,CA, | B,CA, | EFD | A_BG | A_BG | AF_B | %40
 EAD | G^CF | B,2 D) | (EFD | EFD | EFD) | (E^CD | B,^CA, |[K:bass] B,G,A, | ^F,=F,D,) | %50
[M:3/4] x2 A,,4 | x2 A,,4 | x6 | E,,4 x2 | x6 | x6 | x6 | E,6 | x2 A,,2 A,,2 | x4[K:treble] x2 | %60
 E6 | E6 | x[K:bass] x5 | x6 | x6 | x6 | x6 | x6 | E,,2 x2 x2 | x6 | x6 | x2 E,2 F,2 | x2 E,4 | %73
 x6 | x6 | x6 | x6 | E,,2 x2 x2 | x4[K:treble] x2 | x6 |[K:bass] x4[K:treble] x2 | A6 | %82
[K:bass] x6 | x2 E,4 | x6 |] %85
V:5
 x6 | x6 | x6 | x6 | x6 | x6 | x6 | x6 |[K:bass] x6 |[K:treble] x6 | x6 | x6 | x6 | x6 | x6 | x6 | %16
 x6 |[K:bass] x6 |[M:3/8][K:treble] x3 | x3 | x3 | x3 | x3 | x3 | x3 | x3 | x3 | x3 | x3 | x3 | %30
 x3 | x3 | x3 | x3 | x3 | x3 | x3 | x3 | x3 | x3 | x3 | x3 | x3 | x3 | x3 | x3 | x3 | x3 | x3 | %49
 x3 |[M:3/4] x2 D4 | x2 B,4 | x6 | x6 | x6 | x6 | x6 | x6 | x6 | x6 | x6 | x6 | x6 | x6 | x6 | x6 | %66
 x6 | x6 | x6 | x6 | x6 | x6 | x6 |[K:bass] x6 |[K:treble] x6 | x6 | x6 | x6 | x6 | x6 | x6 | x6 | %82
 c4 x2 | x6 |[K:bass] x6 |] %85

